icons/town-hall-11.svg

<?xml version="1.0" encoding="utf-8"?>
<!-- Generator: Adobe Illustrator 19.2.1, SVG Export Plug-In . SVG Version: 6.00 Build 0)  -->
<!DOCTYPE svg PUBLIC "-//W3C//DTD SVG 1.1//EN" "http://www.w3.org/Graphics/SVG/1.1/DTD/svg11.dtd">
<svg version="1.1" id="Layer_1" xmlns="http://www.w3.org/2000/svg" xmlns:xlink="http://www.w3.org/1999/xlink" x="0px" y="0px"
	 width="11px" height="11px" viewBox="0 0 11 11" style="enable-background:new 0 0 11 11;" xml:space="preserve">
<path d="M5.5,0L1,2v1h9V2L5.5,0z M2,4v4L1,9v1h9V9L9,8V4H2z M3,5h1v3H3V5z M5,5h1v3H5V5z M7,5h1v3H7V5z"/>
</svg>

<svg xmlns="http://www.w3.org/2000/svg" width="11" height="11" viewBox="0 0 11 11">
  <title>town-hall-11</title>
  <path d="M5.5,0L1,2V3h9V2ZM2,4V8L1,9v1h9V9L9,8V4H2ZM3,5H4V8H3V5ZM5,5H6V8H5V5ZM7,5H8V8H7V5Z"/>
</svg>
